X: 28763
T: My Lagan Love
R: polka
M: 2/4
K: Amixolydian
((3ef/g/|a3e (3dcA|G3 ) (A (3cde|d3/2c/ AA|
A3) (e/f/ (3gfg|aa2 e (3dcA|G3) (A (3cde|d3/2c/ AA|
A3) (A cd|f3/2e/ ef//e//d/c/|d3) (dfg|a3 d (3fef|^g3 a a4)|
(=c'4 a3 g|a3 e (3dcA|G3) (A (3cde|d3/2c/ AA|A4):|

